src/assets/img/next.svg

<svg width="289" height="321" viewBox="0 0 289 321" fill="none" xmlns="http://www.w3.org/2000/svg">
<path d="M7.94186 317.824C12.8059 320.704 18.9179 320.736 23.8459 317.952L256.006 187.36V304C256.006 312.832 263.174 320 272.006 320C280.838 320 288.006 312.832 288.006 304V15.9998C288.006 7.16779 280.838 -0.000213623 272.006 -0.000213623C263.174 -0.000213623 256.006 7.16779 256.006 15.9998V132.64L23.8459 2.04779C21.4139 0.67179 18.7259 -0.000213623 16.0059 -0.000213623C13.2219 -0.000213623 10.4059 0.735781 7.94186 2.17578C3.04586 5.05578 0.00585938 10.3038 0.00585938 15.9998V304C0.00585938 309.696 3.04586 314.944 7.94186 317.824ZM32.0059 43.3598L239.366 160L32.0059 276.64V43.3598Z" fill="white"/>
</svg>

<svg width="289" height="321" fill="none" xmlns="http://www.w3.org/2000/svg"><path d="M7.942 317.824c4.864 2.88 10.976 2.912 15.904.128l232.16-130.592V304c0 8.832 7.168 16 16 16s16-7.168 16-16V16c0-8.832-7.168-16-16-16s-16 7.168-16 16v116.64L23.846 2.048A15.85 15.85 0 0016.006 0c-2.784 0-5.6.736-8.064 2.176C3.046 5.056.006 10.304.006 16v288c0 5.696 3.04 10.944 7.936 13.824zM32.006 43.36L239.366 160 32.006 276.64V43.36z" fill="#fff"/></svg>
